X:118
T:Sisters
Z:Jack Campin  *  May 2000  *  http://www.campin.me.uk/
M:6/8
L:1/8
Q:110
K:G
  d | B2 d (gfg | agf g2) d | B2 d (gfg | a2 AA2 d | B2 d (gfg | agf g2)
 d | Bdd Add | B2 GG2 :|:z| B2 dd2 B | (=c2 e)e3 | B2 d (gfg) | a2 AA2 d
 |
 B2 dd=cB | (=c2 e)e3 | Bdd Add |1 B2 GG2 :|2 B2 Gg2 z ||

